X:110
T: Trip to Birmingham
C: Josie McDermott
S: "Treoir"
Z: B.Black
M: 4/4
L: 1/8
R: reel
K: G
E |DGGF G2 Bd |e2 ed edBA |G2 GB dGBG | ABAG EG D2 |
DGGF G2 Bd | efed efga | bg g2 ageg | dBAB G3 :|
B |dggf g2 ga |bgag edBA |G2 GB dGBG | ABAG EG D2 |
dggf g2 ga | bgag edBA | G2 GB dGBG | AGFA G3 :|
